icons/3_Generic/Bitcoin.svg

<svg xmlns="http://www.w3.org/2000/svg" viewBox="0 0 1024 1024">
   <circle cx="512" cy="512" r="512" style="fill:#6750a4"/>
   <path d="M631.13 491.38c48.63-40.09 55.56-112.01 15.47-160.64a114.103 114.103 0 0 0-82.55-41.4V240.3c0-9-7.3-16.3-16.3-16.3s-16.3 7.3-16.3 16.3v48.91h-54.34V240.3c0-9-7.3-16.3-16.3-16.3s-16.3 7.3-16.3 16.3v48.91h-92.38c-9 0-16.3 7.3-16.3 16.3s7.3 16.3 16.3 16.3h27.17v380.38h-27.17c-9 0-16.3 7.3-16.3 16.3s7.3 16.3 16.3 16.3h92.38v48.91c0 9 7.3 16.3 16.3 16.3s16.3-7.3 16.3-16.3v-48.91h54.34v48.91c0 9 7.3 16.3 16.3 16.3s16.3-7.3 16.3-16.3v-48.91h27.17c69.03 0 124.98-55.97 124.97-124.99 0-53.64-34.23-101.29-85.06-118.42Zm8.99-88.06c0 45.02-36.49 81.51-81.51 81.51H411.89V321.81h146.72c45.02 0 81.51 36.49 81.51 81.51Zm-48.91 298.87H411.89V517.44h179.32c51.02 0 92.38 41.36 92.38 92.38s-41.36 92.38-92.38 92.38Z" style="fill:#fff"/>
</svg>

<svg width="1024" height="1024" viewBox="0 0 1024 1024" fill="none" xmlns="http://www.w3.org/2000/svg">
<g clip-path="url(#clip0_3_455)">
<path d="M512 1024C794.77 1024 1024 794.77 1024 512C1024 229.23 794.77 0 512 0C229.23 0 0 229.23 0 512C0 794.77 229.23 1024 512 1024Z" fill="#8C72BD"/>
<path d="M631.13 491.38C679.76 451.29 686.69 379.37 646.6 330.74C636.485 318.467 623.917 308.445 609.701 301.315C595.485 294.186 579.935 290.107 564.05 289.34V240.3C564.05 231.3 556.75 224 547.75 224C538.75 224 531.45 231.3 531.45 240.3V289.21H477.11V240.3C477.11 231.3 469.81 224 460.81 224C451.81 224 444.51 231.3 444.51 240.3V289.21H352.13C343.13 289.21 335.83 296.51 335.83 305.51C335.83 314.51 343.13 321.81 352.13 321.81H379.3V702.19H352.13C343.13 702.19 335.83 709.49 335.83 718.49C335.83 727.49 343.13 734.79 352.13 734.79H444.51V783.7C444.51 792.7 451.81 800 460.81 800C469.81 800 477.11 792.7 477.11 783.7V734.79H531.45V783.7C531.45 792.7 538.75 800 547.75 800C556.75 800 564.05 792.7 564.05 783.7V734.79H591.22C660.25 734.79 716.2 678.82 716.19 609.8C716.19 556.16 681.96 508.51 631.13 491.38ZM640.12 403.32C640.12 448.34 603.63 484.83 558.61 484.83H411.89V321.81H558.61C603.63 321.81 640.12 358.3 640.12 403.32ZM591.21 702.19H411.89V517.44H591.21C642.23 517.44 683.59 558.8 683.59 609.82C683.59 660.84 642.23 702.2 591.21 702.2V702.19Z" fill="white"/>
</g>
<defs>
<clipPath id="clip0_3_455">
<rect width="1024" height="1024" fill="white"/>
</clipPath>
</defs>
</svg>
